icons/svg/road_shields/h_us_truck_icon_shield.svg

<?xml version="1.0" encoding="UTF-8" standalone="no"?>
<!-- Generator: Adobe Illustrator 16.0.4, SVG Export Plug-In . SVG Version: 6.00 Build 0)  -->

<svg
   xmlns:dc="http://purl.org/dc/elements/1.1/"
   xmlns:cc="http://creativecommons.org/ns#"
   xmlns:rdf="http://www.w3.org/1999/02/22-rdf-syntax-ns#"
   xmlns:svg="http://www.w3.org/2000/svg"
   xmlns="http://www.w3.org/2000/svg"
   xmlns:sodipodi="http://sodipodi.sourceforge.net/DTD/sodipodi-0.dtd"
   xmlns:inkscape="http://www.inkscape.org/namespaces/inkscape"
   version="1.1"
   id="Слой_1"
   x="0px"
   y="0px"
   width="25"
   height="41"
   viewBox="0 0 25 41"
   enable-background="new 0 0 17.143 17.17"
   xml:space="preserve"
   inkscape:version="0.91 r"
   sodipodi:docname="h_us_truck_icon_shield.svg"><metadata
     id="metadata13"><rdf:RDF><cc:Work
         rdf:about=""><dc:format>image/svg+xml</dc:format><dc:type
           rdf:resource="http://purl.org/dc/dcmitype/StillImage" /><dc:title /></cc:Work></rdf:RDF></metadata><defs
     id="defs11" /><sodipodi:namedview
     pagecolor="#ffffff"
     bordercolor="#666666"
     borderopacity="1"
     objecttolerance="10"
     gridtolerance="10"
     guidetolerance="10"
     inkscape:pageopacity="0"
     inkscape:pageshadow="2"
     inkscape:window-width="1920"
     inkscape:window-height="1004"
     id="namedview9"
     showgrid="false"
     inkscape:zoom="19.43823"
     inkscape:cx="17.186403"
     inkscape:cy="29.532545"
     inkscape:window-x="1680"
     inkscape:window-y="0"
     inkscape:window-maximized="1"
     inkscape:current-layer="Слой_1"
     showguides="false" /><rect
     style="color:#000000;clip-rule:evenodd;display:inline;overflow:visible;visibility:visible;opacity:1;isolation:auto;mix-blend-mode:normal;color-interpolation:sRGB;color-interpolation-filters:linearRGB;solid-color:#000000;solid-opacity:1;fill:#ffffff;fill-opacity:1;fill-rule:evenodd;stroke:#515151;stroke-width:1.08273661;stroke-linecap:butt;stroke-linejoin:miter;stroke-miterlimit:4;stroke-dasharray:none;stroke-dashoffset:0;stroke-opacity:1;marker:none;color-rendering:auto;image-rendering:auto;shape-rendering:auto;text-rendering:auto;enable-background:accumulate"
     id="rect4135"
     width="19.803215"
     height="7.0026784"
     x="2.598392"
     y="0.56049848"
     ry="0" /><path
     inkscape:connector-curvature="0"
     id="path4146"
     style="font-style:normal;font-variant:normal;font-weight:bold;font-stretch:normal;font-size:medium;line-height:125%;font-family:Sans;-inkscape-font-specification:'Sans Bold';letter-spacing:0px;word-spacing:0px;fill:#515151;fill-opacity:1;stroke:none;stroke-width:1px;stroke-linecap:butt;stroke-linejoin:miter;stroke-opacity:1"
     d="m 3.9847714,2.0637377 3.0135777,0 0,0.768691 -1.0840996,0 0,3.17514 -0.8431885,0 0,-3.17514 -1.0862896,0 0,-0.768691 z" /><path
     inkscape:connector-curvature="0"
     id="path4148"
     style="font-style:normal;font-variant:normal;font-weight:bold;font-stretch:normal;font-size:medium;line-height:125%;font-family:Sans;-inkscape-font-specification:'Sans Bold';letter-spacing:0px;word-spacing:0px;fill:#515151;fill-opacity:1;stroke:none;stroke-width:1px;stroke-linecap:butt;stroke-linejoin:miter;stroke-opacity:1"
     d="m 8.6299737,3.8124427 q 0.2650021,0 0.3788873,-0.11887 0.1160753,-0.118869 0.1160753,-0.390949 0,-0.269438 -0.1160753,-0.385666 -0.1138852,-0.116228 -0.3788873,-0.116228 l -0.3547963,0 0,1.011713 0.3547963,0 z m -0.3547963,0.702651 0,1.492475 -0.8431884,0 0,-3.943831 1.2877787,0 q 0.6460796,0 0.9461233,0.261513 0.3022338,0.261514 0.3022338,0.826805 0,0.390949 -0.1576872,0.641896 -0.1554971,0.250947 -0.4708715,0.369817 0.1730178,0.04755 0.308804,0.216607 0.1379764,0.166417 0.2781428,0.507176 l 0.4577311,1.120017 -0.8979412,0 -0.3985982,-0.980014 Q 8.9672491,4.7317007 8.8424134,4.6233977 8.7197677,4.5150937 8.5138983,4.5150937 l -0.2387209,0 z" /><path
     inkscape:connector-curvature="0"
     id="path4150"
     style="font-style:normal;font-variant:normal;font-weight:bold;font-stretch:normal;font-size:medium;line-height:125%;font-family:Sans;-inkscape-font-specification:'Sans Bold';letter-spacing:0px;word-spacing:0px;fill:#515151;fill-opacity:1;stroke:none;stroke-width:1px;stroke-linecap:butt;stroke-linejoin:miter;stroke-opacity:1"
     d="m 10.883586,2.0637377 0.843189,0 0,2.364185 q 0,0.488687 0.131406,0.70001 0.133597,0.208683 0.433641,0.208683 0.302233,0 0.433639,-0.208683 0.133596,-0.211323 0.133596,-0.70001 l 0,-2.364185 0.843189,0 0,2.364185 q 0,0.837371 -0.348226,1.246811 -0.348226,0.40944 -1.062198,0.40944 -0.711784,0 -1.06001,-0.40944 -0.348226,-0.40944 -0.348226,-1.246811 l 0,-2.364185 z" /><path
     inkscape:connector-curvature="0"
     id="path4152"
     style="font-style:normal;font-variant:normal;font-weight:bold;font-stretch:normal;font-size:medium;line-height:125%;font-family:Sans;-inkscape-font-specification:'Sans Bold';letter-spacing:0px;word-spacing:0px;fill:#515151;fill-opacity:1;stroke:none;stroke-width:1px;stroke-linecap:butt;stroke-linejoin:miter;stroke-opacity:1"
     d="m 17.120992,5.7909617 q -0.232151,0.145285 -0.484013,0.219248 -0.251861,0.07396 -0.525624,0.07396 -0.816907,0 -1.294349,-0.549442 -0.477441,-0.552083 -0.477441,-1.495116 0,-0.945674 0.477441,-1.495116 0.477442,-0.552083 1.294349,-0.552083 0.273763,0 0.525624,0.07396 0.251862,0.07396 0.484013,0.219248 l 0,0.816239 q -0.234341,-0.192833 -0.462111,-0.282646 -0.227771,-0.08981 -0.479633,-0.08981 -0.45116,0 -0.709592,0.348684 -0.258432,0.348685 -0.258432,0.961524 0,0.610197 0.258432,0.958881 0.258432,0.348685 0.709592,0.348685 0.251862,0 0.479633,-0.08981 0.22777,-0.08981 0.462111,-0.282646 l 0,0.816238 z" /><path
     inkscape:connector-curvature="0"
     id="path4154"
     style="font-style:normal;font-variant:normal;font-weight:bold;font-stretch:normal;font-size:medium;line-height:125%;font-family:Sans;-inkscape-font-specification:'Sans Bold';letter-spacing:0px;word-spacing:0px;fill:#515151;fill-opacity:1;stroke:none;stroke-width:1px;stroke-linecap:butt;stroke-linejoin:miter;stroke-opacity:1"
     d="m 17.821823,2.0637377 0.843188,0 0,1.439644 1.215506,-1.439644 0.978975,0 -1.574682,1.867574 1.73675,2.076257 -1.055629,0 -1.30092,-1.55323 0,1.55323 -0.843188,0 0,-3.943831 z" /></svg>

<svg width="25" height="41" viewBox="0 0 25 41" fill="none" xmlns="http://www.w3.org/2000/svg">
<path d="M22.4016 0.560486H2.59839V7.56316H22.4016V0.560486Z" fill="white" stroke="#515151" stroke-width="1.08274"/>
<path d="M3.98477 2.06372H6.99835V2.83241H5.91425V6.00755H5.07106V2.83241H3.98477V2.06372V2.06372Z" fill="#515151"/>
<path d="M8.62997 3.81243C8.80664 3.81243 8.93294 3.7728 9.00886 3.69356C9.08624 3.61431 9.12494 3.48399 9.12494 3.30261C9.12494 3.12298 9.08624 2.99443 9.00886 2.91694C8.93294 2.83946 8.80664 2.80071 8.62997 2.80071H8.27518V3.81243H8.62997ZM8.27518 4.51508V6.00755H7.43199V2.06372H8.71977C9.15049 2.06372 9.46586 2.15089 9.66589 2.32523C9.86738 2.49958 9.96812 2.77518 9.96812 3.15204C9.96812 3.41267 9.91556 3.62664 9.81044 3.79393C9.70677 3.96123 9.54982 4.08451 9.33957 4.16375C9.45491 4.19545 9.55785 4.26765 9.64837 4.38036C9.74035 4.4913 9.83307 4.66036 9.92651 4.88753L10.3842 6.00755H9.4863L9.0877 5.02754C9.0074 4.8303 8.92564 4.69558 8.84241 4.62338C8.76065 4.55118 8.65114 4.51508 8.5139 4.51508H8.27518V4.51508Z" fill="#515151"/>
<path d="M10.8836 2.06372H11.7268V4.42791C11.7268 4.7537 11.7706 4.98703 11.8582 5.12792C11.9472 5.26704 12.0918 5.3366 12.2918 5.3366C12.4933 5.3366 12.6379 5.26704 12.7255 5.12792C12.8145 4.98703 12.8591 4.7537 12.8591 4.42791V2.06372H13.7022V4.42791C13.7022 4.98615 13.5862 5.40176 13.354 5.67472C13.1219 5.94768 12.7678 6.08416 12.2918 6.08416C11.8173 6.08416 11.464 5.94768 11.2318 5.67472C10.9997 5.40176 10.8836 4.98615 10.8836 4.42791V2.06372Z" fill="#515151"/>
<path d="M17.121 5.79098C16.9662 5.88784 16.8049 5.96092 16.637 6.01023C16.4691 6.05954 16.2939 6.08419 16.1114 6.08419C15.5668 6.08419 15.1353 5.90104 14.817 5.53475C14.4987 5.16669 14.3396 4.66832 14.3396 4.03963C14.3396 3.40918 14.4987 2.91081 14.817 2.54451C15.1353 2.17646 15.5668 1.99243 16.1114 1.99243C16.2939 1.99243 16.4691 2.01708 16.637 2.06639C16.8049 2.1157 16.9662 2.18878 17.121 2.28564V3.10188C16.9648 2.97332 16.8107 2.87911 16.6589 2.81923C16.507 2.75936 16.3472 2.72942 16.1792 2.72942C15.8785 2.72942 15.6419 2.84565 15.4697 3.07811C15.2974 3.31056 15.2112 3.63107 15.2112 4.03963C15.2112 4.44643 15.2974 4.76606 15.4697 4.99851C15.6419 5.23097 15.8785 5.3472 16.1792 5.3472C16.3472 5.3472 16.507 5.31726 16.6589 5.25739C16.8107 5.19751 16.9648 5.1033 17.121 4.97474V5.79098V5.79098Z" fill="#515151"/>
<path d="M17.8218 2.06372H18.665V3.50336L19.8805 2.06372H20.8595L19.2848 3.93129L21.0216 6.00755H19.9659L18.665 4.45432V6.00755H17.8218V2.06372V2.06372Z" fill="#515151"/>
</svg>
